X:1
T:cornelius
M:6/8
L:1/8
Q:3/8=100
K:Bmin
|:B2 f fed | cde BAB | A2e edc | cAA cde |
B2 f fef | fef afe | fBB eBB | cde Adc:|
|:Bff fga  | eAe edc | Aee edc | cAc edc |
Bff fga  | agf gfe | cAc cde | cde Adc:|
